Optical/Handelsbanken.svg

<?xml version="1.0" encoding="UTF-8"?>
<svg width="158px" height="48px" viewBox="0 0 158 48" version="1.1" xmlns="http://www.w3.org/2000/svg" xmlns:xlink="http://www.w3.org/1999/xlink">
    <!-- Generator: Sketch 52.3 (67297) - http://www.bohemiancoding.com/sketch -->
    <title>Optical/Handelsbanken</title>
    <desc>Created with Sketch.</desc>
    <g id="Optical/Handelsbanken" stroke="none" stroke-width="1" fill="none" fill-rule="evenodd">
        <path d="M2.05169215e-13,17 L3.46265487,17 L3.46265487,23.0218935 L9.83658652,23.0218935 L9.83658652,17 L13.2992412,17 L13.2992412,32.6920878 L9.83658652,32.6920878 L9.83658652,25.9229519 L3.46265487,25.9229519 L3.46265487,32.6920878 L2.05169215e-13,32.6920878 L2.05169215e-13,17 Z M15.6591398,24.824066 C15.8355807,21.9010302 18.460141,21.0219216 21.0185359,21.0219216 C23.2902138,21.0219216 26.0250496,21.527409 26.0250496,24.2526454 L26.0250496,30.1646507 C26.0250496,31.1973791 26.1353251,32.2305556 26.4220414,32.6920878 L23.2461038,32.6920878 C23.1358277,32.340444 23.0476075,31.9668229 23.0255522,31.5932018 C22.0330717,32.6261546 20.5774334,32.9997757 19.1879605,32.9997757 C17.026558,32.9997757 15.3062581,31.9228677 15.3062581,29.5932301 C15.3062581,27.0218372 17.247109,26.4064614 19.1879605,26.1427287 C21.106756,25.857243 22.8932214,25.9231762 22.8932214,24.6482444 C22.8932214,23.3076037 21.9669063,23.1098042 20.8641497,23.1098042 C19.673173,23.1098042 18.9012435,23.5933143 18.790968,24.824066 L15.6591398,24.824066 Z M22.8929963,27.1317262 C22.3636736,27.5932578 21.2609171,27.6152357 20.2904913,27.7910573 C19.3200662,27.9888568 18.4378605,28.3185226 18.4378605,29.4611394 C18.4378605,30.6259585 19.3421209,30.9118928 20.3566567,30.9118928 C22.8047761,30.9118928 22.8929963,28.9778543 22.8929963,28.2965447 L22.8929963,27.1317262 Z M28.2301119,21.3296096 L31.2075539,21.3296096 L31.2075539,22.912005 L31.2737194,22.912005 C32.0677042,21.6372976 33.4351218,21.0219216 34.7584293,21.0219216 C38.0887537,21.0219216 38.9268487,22.8900273 38.9268487,25.7031744 L38.9268487,32.6920878 L35.7950205,32.6920878 L35.7950205,26.2743707 C35.7950205,24.4062653 35.2436425,23.4832016 33.7880042,23.4832016 C32.089759,23.4832016 31.3619401,24.4282432 31.3619401,26.7359029 L31.3619401,32.6918634 L28.2301119,32.6918634 L28.2301119,21.3296096 Z M49.2263673,31.2415587 L49.1822573,31.2415587 C48.4544378,32.472086 47.175241,32.9997757 45.7196026,32.9997757 C42.2790027,32.9997757 40.6028128,30.0547617 40.6028128,26.9119488 C40.6028128,23.8568227 42.3010575,21.0219216 45.6534372,21.0219216 C46.9987995,21.0219216 48.3221076,21.5933422 49.0278711,22.7142056 L49.0719818,22.7142056 L49.0719818,17 L52.2038094,17 L52.2038094,32.6920878 L49.2263673,32.6920878 L49.2263673,31.2415587 Z M46.4915316,23.3735369 C44.4404052,23.3735369 43.7346411,25.1317539 43.7346411,26.9998599 C43.7346411,28.7800548 44.5506807,30.6481602 46.4915316,30.6481602 C48.5647139,30.6481602 49.1822573,28.845988 49.1822573,26.9781063 C49.1822573,25.1317539 48.5206032,23.3735369 46.4915316,23.3735369 Z M56.9236067,27.76908 C57.0118275,29.7470738 57.9822526,30.6481602 59.7246079,30.6481602 C60.98175,30.6481602 61.996284,29.8789401 62.1947845,29.1758775 L64.9516713,29.1758775 C64.06947,31.8571588 62.1947845,33 59.6143324,33 C56.0193464,33 53.7917785,30.5384961 53.7917785,27.0220615 C53.7917785,23.6157403 56.1516772,21.0223702 59.6143324,21.0223702 C63.4960336,21.0223702 65.3707191,24.275072 65.1501718,27.7693043 L56.9236067,27.7693043 L56.9236067,27.76908 Z M62.0181167,25.7910855 C61.7313985,24.2086901 61.0476903,23.3735369 59.5258866,23.3735369 C57.540925,23.3735369 56.9674917,24.911977 56.9233816,25.7910855 L62.0181167,25.7910855 Z M66.870016,17 L70.0018449,17 L70.0018449,32.6920878 L66.870016,32.6920878 L66.870016,17 Z M74.6775352,28.9998316 C74.6995881,30.3624502 75.8464547,30.9118928 77.0815452,30.9118928 C77.9858055,30.9118928 79.1326722,30.5602491 79.1326722,29.4611394 C79.1326722,28.5160978 77.8314169,28.186432 75.5817956,27.7029225 C73.7732749,27.3073235 71.9647542,26.670194 71.9647542,24.669998 C71.9647542,21.7689396 74.4790347,21.0216974 76.9271566,21.0216974 C79.4193842,21.0216974 81.7131175,21.8568505 81.9557238,24.6480201 L78.9782836,24.6480201 C78.8900598,23.4392457 77.9637465,23.1095799 76.8389389,23.1095799 C76.1331729,23.1095799 75.096583,23.2414462 75.096583,24.1645106 C75.096583,25.2855981 76.8609918,25.4392181 78.6474535,25.8567944 C80.4780332,26.2741464 82.2644949,26.9337024 82.2644949,29.0435631 C82.2644949,32.0323074 79.6619905,32.9995513 77.0594862,32.9995513 C74.4128699,32.9995513 71.8324246,32.0105544 71.7000889,28.9996073 L74.6775352,28.9996073 L74.6775352,28.9998316 Z M83.8742948,17 L87.0061237,17 L87.0061237,22.7142056 L87.0502356,22.7142056 C87.8221663,21.5493867 89.2336921,21.0219216 90.6452179,21.0219216 C92.9168983,21.0219216 95.3652404,22.8460718 95.3652404,26.9998599 C95.3652404,31.1756255 92.9168983,32.9997757 90.6452179,32.9997757 C88.9692532,32.9997757 87.57956,32.4942883 86.895847,31.2415587 L86.8519614,31.2415587 L86.8519614,32.6920878 L83.8745212,32.6920878 L83.8745212,17 L83.8742948,17 Z M89.5645161,23.3735369 C87.712116,23.3735369 86.895847,25.1097766 86.895847,27.0218372 C86.895847,28.9121448 87.712116,30.6481602 89.5645161,30.6481602 C91.4171487,30.6481602 92.2331914,28.9121448 92.2331914,27.0218372 C92.2331914,25.1097766 91.4171487,23.3735369 89.5645161,23.3735369 Z M96.996873,24.824066 C97.1733145,21.9010302 99.7978718,21.0219216 102.356044,21.0219216 C104.627945,21.0219216 107.362558,21.527409 107.362558,24.2526454 L107.362558,30.1646507 C107.362558,31.1973791 107.472829,32.2305556 107.759773,32.6920878 L104.583833,32.6920878 C104.473562,32.340444 104.385338,31.9668229 104.363285,31.5932018 C103.371028,32.6261546 101.915164,32.9997757 100.525691,32.9997757 C98.364287,32.9997757 96.6439901,31.9228677 96.6439901,29.5932301 C96.6439901,27.0218372 98.5848404,26.4064614 100.525691,26.1427287 C102.444488,25.857243 104.230956,25.9231762 104.230956,24.6482444 C104.230956,23.3076037 103.304863,23.1098042 102.201882,23.1098042 C101.010903,23.1098042 100.238972,23.5933143 100.128702,24.824066 L96.996873,24.824066 Z M104.230956,27.1317262 C103.701631,27.5932578 102.598877,27.6152357 101.628672,27.7910573 C100.65802,27.9888568 99.7760452,28.3185226 99.7760452,29.4611394 C99.7760452,30.6259585 100.680526,30.9118928 101.694837,30.9118928 C104.142958,30.9118928 104.231176,28.9778543 104.231176,28.2965447 L104.231176,27.1317262 L104.230956,27.1317262 Z M109.568068,21.3296096 L112.545288,21.3296096 L112.545288,22.912005 L112.611453,22.912005 C113.405436,21.6372976 114.772856,21.0219216 116.096158,21.0219216 C119.426488,21.0219216 120.264357,22.8900273 120.264357,25.7031744 L120.264357,32.6920878 L117.132975,32.6920878 L117.132975,26.2743707 C117.132975,24.4062653 116.581597,23.4832016 115.125959,23.4832016 C113.427715,23.4832016 112.700123,24.4282432 112.700123,26.7359029 L112.700123,32.6918634 L109.568294,32.6918634 L109.568294,21.3296096 L109.568068,21.3296096 Z M122.712699,17 L125.844528,17 L125.844528,25.4174645 L129.792393,21.3293853 L133.497658,21.3293853 L129.196904,25.5051512 L133.983091,32.6918634 L130.189614,32.6918634 L127.057785,27.6150114 L125.844754,28.7796061 L125.844754,32.6916391 L122.712925,32.6916391 L122.712925,17 L122.712699,17 Z M137.445297,27.76908 C137.533741,29.7470738 138.503946,30.6481602 140.246302,30.6481602 C141.503439,30.6481602 142.517976,29.8789401 142.716477,29.1758775 L145.473364,29.1758775 C144.591162,31.8571588 142.716477,33 140.136025,33 C136.541037,33 134.313468,30.5384961 134.313468,27.0220615 C134.313468,23.6157403 136.673367,21.0223702 140.136025,21.0223702 C144.017726,21.0223702 145.892412,24.275072 145.671858,27.7693043 L137.445297,27.7693043 L137.445297,27.76908 Z M142.539809,25.7910855 C142.253317,24.2086901 141.569384,23.3735369 140.047802,23.3735369 C138.062839,23.3735369 137.489409,24.911977 137.445297,25.7910855 L142.539809,25.7910855 Z M147.303717,21.3296096 L150.280931,21.3296096 L150.280931,22.912005 L150.347096,22.912005 C151.141079,21.6372976 152.508499,21.0219216 153.831808,21.0219216 C157.162131,21.0219216 158,22.8900273 158,25.7031744 L158,32.6920878 L154.868171,32.6920878 L154.868171,26.2743707 C154.868171,24.4062653 154.316794,23.4832016 152.861156,23.4832016 C151.162912,23.4832016 150.43532,24.4282432 150.43532,26.7359029 L150.43532,32.6918634 L147.303491,32.6918634 L147.303491,21.3296096 L147.303717,21.3296096 Z" id="Cropped/Handelsbanken" fill="#0066B3"></path>
    </g>
</svg>

<svg width="158" height="48" xmlns="http://www.w3.org/2000/svg"><path d="M0 17h3.463v6.022h6.374V17h3.462v15.692H9.837v-6.769H3.463v6.77H0V17zm15.66 7.824c.176-2.923 2.8-3.802 5.359-3.802 2.271 0 5.006.505 5.006 3.23v5.913c0 1.032.11 2.066.397 2.527h-3.176a4.628 4.628 0 0 1-.22-1.099C22.033 32.626 20.577 33 19.188 33c-2.161 0-3.882-1.077-3.882-3.407 0-2.571 1.941-3.187 3.882-3.45 1.919-.286 3.705-.22 3.705-1.495 0-1.34-.926-1.538-2.029-1.538-1.19 0-1.963.483-2.073 1.714h-3.132zm7.233 2.308c-.53.461-1.632.483-2.603.66-.97.197-1.852.527-1.852 1.67 0 1.164.904 1.45 1.919 1.45 2.448 0 2.536-1.934 2.536-2.615v-1.165zm5.337-5.802h2.978v1.582h.066c.794-1.275 2.161-1.89 3.484-1.89 3.33 0 4.169 1.868 4.169 4.681v6.99h-3.132v-6.419c0-1.868-.551-2.79-2.007-2.79-1.698 0-2.426.944-2.426 3.252v5.956H28.23V21.33zm20.996 9.912h-.044C48.454 32.472 47.175 33 45.72 33c-3.441 0-5.117-2.945-5.117-6.088 0-3.055 1.698-5.89 5.05-5.89 1.346 0 2.67.571 3.375 1.692h.044V17h3.132v15.692h-2.978v-1.45zm-2.734-7.868c-2.052 0-2.757 1.758-2.757 3.626 0 1.78.816 3.648 2.757 3.648 2.073 0 2.69-1.802 2.69-3.67 0-1.846-.661-3.604-2.69-3.604zm10.432 4.395c.088 1.978 1.058 2.88 2.8 2.88 1.258 0 2.272-.77 2.47-1.473h2.758C64.069 31.857 62.195 33 59.614 33c-3.595 0-5.822-2.462-5.822-5.978 0-3.406 2.36-6 5.822-6 3.882 0 5.757 3.253 5.536 6.747h-8.226zm5.094-1.978c-.287-1.582-.97-2.417-2.492-2.417-1.985 0-2.559 1.538-2.603 2.417h5.095zM66.87 17h3.132v15.692H66.87V17zm7.808 12c.022 1.362 1.168 1.912 2.404 1.912.904 0 2.05-.352 2.05-1.45 0-.946-1.3-1.276-3.55-1.76-1.809-.395-3.617-1.032-3.617-3.032 0-2.901 2.514-3.648 4.962-3.648 2.492 0 4.786.835 5.029 3.626h-2.978c-.088-1.209-1.014-1.538-2.14-1.538-.705 0-1.741.131-1.741 1.055 0 1.12 1.764 1.274 3.55 1.692 1.831.417 3.617 1.077 3.617 3.187 0 2.988-2.602 3.956-5.205 3.956-2.646 0-5.227-.99-5.359-4h2.978zm9.196-12h3.132v5.714h.044c.772-1.165 2.184-1.692 3.595-1.692 2.272 0 4.72 1.824 4.72 5.978 0 4.176-2.448 6-4.72 6-1.676 0-3.065-.506-3.75-1.758h-.043v1.45h-2.977V17zm5.69 6.374c-1.852 0-2.668 1.736-2.668 3.648 0 1.89.816 3.626 2.669 3.626 1.852 0 2.668-1.736 2.668-3.626 0-1.912-.816-3.648-2.668-3.648zm7.433 1.45c.176-2.923 2.8-3.802 5.359-3.802 2.272 0 5.007.505 5.007 3.23v5.913c0 1.032.11 2.066.397 2.527h-3.176a4.628 4.628 0 0 1-.22-1.099c-.993 1.033-2.449 1.407-3.838 1.407-2.162 0-3.882-1.077-3.882-3.407 0-2.571 1.94-3.187 3.882-3.45 1.918-.286 3.705-.22 3.705-1.495 0-1.34-.926-1.538-2.03-1.538-1.19 0-1.962.483-2.072 1.714h-3.132zm7.234 2.308c-.53.461-1.632.483-2.602.66-.971.197-1.853.527-1.853 1.67 0 1.164.905 1.45 1.919 1.45 2.448 0 2.536-1.934 2.536-2.615v-1.165zm5.337-5.802h2.977v1.582h.066c.794-1.275 2.162-1.89 3.485-1.89 3.33 0 4.168 1.868 4.168 4.681v6.99h-3.131v-6.419c0-1.868-.551-2.79-2.007-2.79-1.698 0-2.426.944-2.426 3.252v5.956h-3.132V21.33zM122.713 17h3.132v8.417l3.947-4.088h3.706l-4.301 4.176 4.786 7.187h-3.793l-3.132-5.077-1.213 1.165v3.912h-3.132V17zm14.732 10.77c.089 1.977 1.059 2.878 2.801 2.878 1.257 0 2.272-.77 2.47-1.472h2.757c-.882 2.681-2.757 3.824-5.337 3.824-3.595 0-5.823-2.462-5.823-5.978 0-3.406 2.36-6 5.823-6 3.882 0 5.756 3.253 5.536 6.747h-8.227zm5.095-1.979c-.287-1.582-.97-2.417-2.492-2.417-1.985 0-2.559 1.538-2.603 2.417h5.095zm4.764-4.461h2.977v1.582h.066c.794-1.275 2.161-1.89 3.485-1.89 3.33 0 4.168 1.868 4.168 4.681v6.99h-3.132v-6.419c0-1.868-.551-2.79-2.007-2.79-1.698 0-2.426.944-2.426 3.252v5.956h-3.132V21.33z" fill="#0066B3" fill-rule="evenodd"/></svg>
